X:70
T:The dogs among the bushes
R:Reel
O:Ireland
S:O'Neill's 1274
B:O'Neill's 1274
Z:Transcription, arrangement, chords:Mike Long
M:C|
L:1/8
K:C
"G"BG~G2 DG~G2|"G"BGGB "C"cedc|\
"G"BG~G2 DG~G2|"F"AFFA fdcA|\
"G"BG~G2 DG~G2|"G"BGGB "C"cedc|
"G"BABc defd|\
"F"cAFA fdcA|]\
"G"dgg^f gagf|dgga bga=f|"F"defe fgfe|
dfeg fdcA|\
"G"dgg^f gagf|dgg^f bgag|bgag bgag|"F"d=feg fdcA|]
